public/static/img/common/no_wallet.svg

<svg width="172" height="106" viewBox="0 0 172 106" fill="none" xmlns="http://www.w3.org/2000/svg" xmlns:xlink="http://www.w3.org/1999/xlink">
<g opacity="0.78">
<g opacity="0.6">
<path d="M21.2471 65.8272C23.1648 65.8272 24.7194 65.3539 24.7194 64.7701C24.7194 64.1862 23.1648 63.7129 21.2471 63.7129C19.3294 63.7129 17.7748 64.1862 17.7748 64.7701C17.7748 65.3539 19.3294 65.8272 21.2471 65.8272Z" fill="#E4E4E4"/>
</g>
<g opacity="0.58">
<path d="M18.1967 64.7533C19.1817 65.1732 23.794 57.8906 24.4663 55.946C25.1385 54.0014 24.4249 51.8888 22.8724 51.2266C21.3199 50.5649 19.5165 51.6051 18.8442 53.5491C18.172 55.4937 17.2117 64.3333 18.1967 64.7533Z" fill="url(#paint0_linear_402_12604)"/>
</g>
<path d="M18.3713 64.761C19.5691 64.4132 19.3929 54.0781 18.8152 51.741C18.237 49.4034 16.2385 47.9524 14.3507 48.5005C12.4634 49.0486 11.4021 51.3878 11.9797 53.7254C12.558 56.0631 17.174 65.1088 18.3713 64.761Z" fill="url(#paint1_linear_402_12604)"/>
</g>
<g opacity="0.78">
<g opacity="0.6">
<path d="M159.098 68.8077C161.016 68.8077 162.57 68.3344 162.57 67.7505C162.57 67.1667 161.016 66.6934 159.098 66.6934C157.18 66.6934 155.626 67.1667 155.626 67.7505C155.626 68.3344 157.18 68.8077 159.098 68.8077Z" fill="#E4E4E4"/>
</g>
<g opacity="0.58">
<path d="M156.047 67.7337C157.032 68.1537 161.645 60.8711 162.317 58.9264C162.989 56.9818 162.276 54.8693 160.723 54.2071C159.171 53.5454 157.367 54.5855 156.695 56.5296C156.023 58.4742 155.062 67.3138 156.047 67.7337Z" fill="url(#paint2_linear_402_12604)"/>
</g>
<path d="M156.222 67.7415C157.42 67.3937 157.244 57.0585 156.666 54.7215C156.088 52.3838 154.089 50.9329 152.201 51.481C150.314 52.029 149.253 54.3683 149.831 56.7059C150.409 59.0435 155.025 68.0893 156.222 67.7415Z" fill="url(#paint3_linear_402_12604)"/>
</g>
<g opacity="0.78">
<g opacity="0.6">
<path d="M145.576 105.999C147.839 105.999 149.673 105.44 149.673 104.751C149.673 104.062 147.839 103.504 145.576 103.504C143.313 103.504 141.479 104.062 141.479 104.751C141.479 105.44 143.313 105.999 145.576 105.999Z" fill="#E4E4E4"/>
</g>
<g opacity="0.58">
<path d="M141.976 104.731C143.139 105.227 148.581 96.6336 149.374 94.339C150.168 92.0444 149.326 89.5516 147.494 88.7703C145.662 87.9895 143.534 89.2169 142.74 91.5108C141.947 93.8054 140.814 104.236 141.976 104.731Z" fill="url(#paint4_linear_402_12604)"/>
</g>
<path d="M142.182 104.742C143.596 104.331 143.388 92.1359 142.706 89.3782C142.024 86.6199 139.666 84.9078 137.438 85.5545C135.211 86.2012 133.959 88.9615 134.641 91.7198C135.323 94.4782 140.77 105.152 142.182 104.742Z" fill="url(#paint5_linear_402_12604)"/>
</g>
<path d="M0 91.1294C9.39324 77.3218 18.3631 70.418 26.908 70.418C35.4535 70.418 45.2279 77.3218 56.2308 91.1294H0Z" fill="url(#paint6_linear_402_12604)"/>
<path d="M33.0769 91.1305C42.9023 72.3519 53.4169 62.9629 64.6208 62.9629C75.8252 62.9629 96.1819 72.3519 125.692 91.1305H33.0769Z" fill="url(#paint7_linear_402_12604)"/>
<path d="M172 91.1301C161.758 76.218 152.098 68.7617 143.02 68.7617C133.942 68.7617 119.346 76.218 99.2308 91.1301H172Z" fill="url(#paint8_linear_402_12604)"/>
<path d="M43.4357 30.2546C39.0653 32.78 37.5679 38.3738 40.0909 42.7484L56.7576 71.6435C59.2806 76.0181 64.8689 77.517 69.2393 74.991L119.468 45.9635C123.839 43.4381 125.336 37.8444 122.813 33.4698L106.146 4.57462C103.623 0.200023 98.0345 -1.29889 93.6641 1.22709L43.4357 30.2546Z" fill="#616161"/>
<path d="M120.615 14.084H61.3077C53.0234 14.084 46.3077 20.7997 46.3077 29.084V62.8752C46.3077 71.1595 53.0234 77.8752 61.3077 77.8752H120.615C128.9 77.8752 135.615 71.1595 135.615 62.8752V29.084C135.615 20.7997 128.9 14.084 120.615 14.084Z" fill="url(#paint9_linear_402_12604)"/>
<path d="M120.615 15.7402H61.3077C53.0234 15.7402 46.3077 22.456 46.3077 30.7402V64.5315C46.3077 72.8158 53.0234 79.5315 61.3077 79.5315H120.615C128.9 79.5315 135.615 72.8158 135.615 64.5315V30.7402C135.615 22.456 128.9 15.7402 120.615 15.7402Z" fill="url(#paint10_linear_402_12604)"/>
<path d="M135.615 28.9961H46.3077V45.5653H135.615V28.9961Z" fill="url(#paint11_linear_402_12604)"/>
<g opacity="0.6">
<path d="M118.76 33.8496H56.4246V40.8485H118.76V33.8496Z" fill="url(#pattern0_402_12604)"/>
</g>
<g opacity="0.32">
<path d="M115.591 60.7422H115.625C118.209 60.7422 120.304 62.8413 120.304 65.4304C120.304 68.0194 118.209 70.118 115.625 70.118H115.591C113.007 70.118 110.912 68.0194 110.912 65.4304C110.912 62.8413 113.007 60.7422 115.591 60.7422Z" fill="#E3E3E3"/>
</g>
<g opacity="0.32">
<path d="M122.374 60.7422H122.408C124.992 60.7422 127.087 62.8413 127.087 65.4304C127.087 68.0194 124.992 70.118 122.408 70.118H122.374C119.79 70.118 117.695 68.0194 117.695 65.4304C117.695 62.8413 119.79 60.7422 122.374 60.7422Z" fill="#E3E3E3"/>
</g>
<defs>
<pattern id="pattern0_402_12604" patternContentUnits="objectBoundingBox" width="1" height="1">
<use xlink:href="#image0_402_12604" transform="scale(0.00862069 0.0769231)"/>
</pattern>
<linearGradient id="paint0_linear_402_12604" x1="-73.2478" y1="248.801" x2="-73.3314" y2="248.315" gradientUnits="userSpaceOnUse">
<stop stop-color="#CFCFCF"/>
<stop offset="1" stop-color="#858585"/>
</linearGradient>
<linearGradient id="paint1_linear_402_12604" x1="-73.5966" y1="249.478" x2="-73.5331" y2="248.98" gradientUnits="userSpaceOnUse">
<stop stop-color="#CECECE"/>
<stop offset="1" stop-color="#888888"/>
</linearGradient>
<linearGradient id="paint2_linear_402_12604" x1="64.603" y1="251.782" x2="64.5193" y2="251.296" gradientUnits="userSpaceOnUse">
<stop stop-color="#CFCFCF"/>
<stop offset="1" stop-color="#858585"/>
</linearGradient>
<linearGradient id="paint3_linear_402_12604" x1="64.2542" y1="252.458" x2="64.3177" y2="251.961" gradientUnits="userSpaceOnUse">
<stop stop-color="#CECECE"/>
<stop offset="1" stop-color="#888888"/>
</linearGradient>
<linearGradient id="paint4_linear_402_12604" x1="34.074" y1="321.904" x2="33.9753" y2="321.331" gradientUnits="userSpaceOnUse">
<stop stop-color="#CFCFCF"/>
<stop offset="1" stop-color="#858585"/>
</linearGradient>
<linearGradient id="paint5_linear_402_12604" x1="33.6624" y1="322.703" x2="33.7374" y2="322.116" gradientUnits="userSpaceOnUse">
<stop stop-color="#CECECE"/>
<stop offset="1" stop-color="#888888"/>
</linearGradient>
<linearGradient id="paint6_linear_402_12604" x1="-77.5824" y1="251.072" x2="-77.5824" y2="251.597" gradientUnits="userSpaceOnUse">
<stop stop-color="#F2F4F9" stop-opacity="0"/>
<stop offset="1" stop-color="#E7EEFF"/>
</linearGradient>
<linearGradient id="paint7_linear_402_12604" x1="82.6923" y1="57.9921" x2="82.2773" y2="91.1304" gradientUnits="userSpaceOnUse">
<stop stop-color="#676767"/>
<stop offset="1" stop-color="#2F2F2F" stop-opacity="0"/>
</linearGradient>
<linearGradient id="paint8_linear_402_12604" x1="-76.1259" y1="253.669" x2="-76.1259" y2="254.219" gradientUnits="userSpaceOnUse">
<stop offset="0.00290329" stop-color="#F2F4F9" stop-opacity="0"/>
<stop offset="0.979756" stop-color="#EAF0FF"/>
</linearGradient>
<linearGradient id="paint9_linear_402_12604" x1="90.9615" y1="14.084" x2="90.9615" y2="77.8752" gradientUnits="userSpaceOnUse">
<stop stop-color="#575757"/>
<stop offset="1" stop-color="#474747"/>
</linearGradient>
<linearGradient id="paint10_linear_402_12604" x1="90.9615" y1="15.7402" x2="90.9615" y2="79.5315" gradientUnits="userSpaceOnUse">
<stop stop-color="#9E9E9E"/>
<stop offset="1" stop-color="#474747"/>
</linearGradient>
<linearGradient id="paint11_linear_402_12604" x1="-77.1177" y1="248.033" x2="-76.3547" y2="248.029" gradientUnits="userSpaceOnUse">
<stop stop-color="#595959"/>
<stop offset="1" stop-color="#565656"/>
</linearGradient>
<image id="image0_402_12604" width="116" height="13" xlink:href="data:image/png;base64,iVBORw0KGgoAAAANSUhEUgAAAHQAAAANCAYAAAB4t0ouAAAAAXNSR0IArs4c6QAAAWlJREFUWEftWFsOAjEItKf1TJ52Tc3WEALMAI2auP5oLJlOh/LqOI7jcTs/Y4z7+r2+5bpc07as3cRgbTPcOtyrnCI9NCbit0vPocWVwJ7wkyxrl7GNMJEgmX0ytrvOuZN/qJN3kyxHe85HtosAspNCRxdNRgbDydq/yymLqTOflRV2cBoesJfuoqhFDuliWqJYF5JxsoVViUZ0Sa3IjC6k5uVxmv9be78cGtWQanrKYGZqGHPTK7X+U+fM8GfrquT+dqgnKpP7tRjoBnYxWVG86LCyTJcTi8lkmWVT4RQ6NEoX3RrHOAWlK43xTU7s3qxDq9pfEXoqXImGSiZiHeplPZQJrhoqFGabokpt8xyZ6R+YMfKvu1zdKbIOldHzk12uNU4gopVDdTEzdRedacfMp6MrwqxyXzozo9jc/3opCp4iM6MMsmVqNJshwpeizHtpZb5jDuK16ahz3MW9O7IxDQyqu2idHWWeWr6yhM2ltuMAAAAASUVORK5CYII="/>
</defs>
</svg>

<svg width="172" height="106" fill="none" xmlns="http://www.w3.org/2000/svg" xmlns:xlink="http://www.w3.org/1999/xlink"><g opacity=".78"><path d="M21.247 65.827c1.918 0 3.472-.473 3.472-1.057s-1.554-1.057-3.472-1.057-3.472.473-3.472 1.057 1.554 1.057 3.472 1.057Z" fill="#E4E4E4" opacity=".6"/><path d="M18.197 64.753c.985.42 5.597-6.862 6.27-8.807.672-1.945-.042-4.057-1.595-4.72-1.552-.661-3.355.38-4.028 2.323-.672 1.945-1.632 10.784-.647 11.204Z" fill="url(#a)" opacity=".58"/><path d="M18.371 64.761c1.198-.348 1.022-10.683.444-13.02-.578-2.338-2.577-3.789-4.464-3.24-1.888.548-2.949 2.887-2.371 5.224.578 2.338 5.194 11.384 6.391 11.036Z" fill="url(#b)"/></g><g opacity=".78"><path d="M159.098 68.808c1.918 0 3.472-.474 3.472-1.058 0-.583-1.554-1.057-3.472-1.057s-3.472.474-3.472 1.058c0 .583 1.554 1.057 3.472 1.057Z" fill="#E4E4E4" opacity=".6"/><path d="M156.047 67.734c.985.42 5.598-6.863 6.27-8.808.672-1.944-.041-4.057-1.594-4.719-1.552-.662-3.356.379-4.028 2.323-.672 1.944-1.633 10.784-.648 11.204Z" fill="url(#c)" opacity=".58"/><path d="M156.222 67.742c1.198-.348 1.022-10.684.444-13.02-.578-2.338-2.577-3.79-4.465-3.241-1.887.548-2.948 2.887-2.37 5.225.578 2.337 5.194 11.383 6.391 11.035Z" fill="url(#d)"/></g><g opacity=".78"><path d="M145.576 105.999c2.263 0 4.097-.559 4.097-1.248s-1.834-1.247-4.097-1.247c-2.263 0-4.097.558-4.097 1.247 0 .689 1.834 1.248 4.097 1.248Z" fill="#E4E4E4" opacity=".6"/><path d="M141.976 104.731c1.163.496 6.605-8.097 7.398-10.392.794-2.295-.048-4.787-1.88-5.569-1.832-.78-3.96.447-4.754 2.74-.793 2.295-1.926 12.726-.764 13.221Z" fill="url(#e)" opacity=".58"/><path d="M142.182 104.742c1.414-.411 1.206-12.606.524-15.364-.682-2.758-3.04-4.47-5.268-3.823-2.227.646-3.479 3.406-2.797 6.165.682 2.758 6.129 13.432 7.541 13.022Z" fill="url(#f)"/></g><path d="M0 91.13c9.393-13.808 18.363-20.712 26.908-20.712 8.545 0 18.32 6.904 29.323 20.711H0Z" fill="url(#g)"/><path d="M33.077 91.13c9.825-18.778 20.34-28.167 31.544-28.167s31.56 9.389 61.071 28.167H33.077Z" fill="url(#h)"/><path d="M172 91.13c-10.242-14.912-19.902-22.368-28.98-22.368s-23.674 7.456-43.79 22.368H172Z" fill="url(#i)"/><path d="M43.436 30.255c-4.37 2.525-5.868 8.119-3.345 12.493l16.667 28.896c2.523 4.374 8.11 5.873 12.481 3.347l50.229-29.027c4.371-2.526 5.868-8.12 3.345-12.494L106.146 4.575C103.623.2 98.034-1.3 93.664 1.227L43.436 30.255Z" fill="#616161"/><path d="M120.615 14.084H61.308c-8.285 0-15 6.716-15 15v33.791c0 8.284 6.715 15 15 15h59.307c8.285 0 15-6.716 15-15V29.084c0-8.284-6.715-15-15-15Z" fill="url(#j)"/><path d="M120.615 15.74H61.308c-8.285 0-15 6.716-15 15v33.791c0 8.285 6.715 15 15 15h59.307c8.285 0 15-6.715 15-15v-33.79c0-8.285-6.715-15-15-15Z" fill="url(#k)"/><path d="M135.615 28.996H46.308v16.57h89.307v-16.57Z" fill="url(#l)"/><path d="M118.76 33.85H56.425v6.998h62.335V33.85Z" fill="url(#m)" opacity=".6"/><path d="M115.591 60.742h.034c2.584 0 4.679 2.1 4.679 4.688a4.683 4.683 0 0 1-4.679 4.688h-.034a4.683 4.683 0 0 1-4.679-4.688 4.684 4.684 0 0 1 4.679-4.688Z" fill="#E3E3E3" opacity=".32"/><path d="M122.374 60.742h.034c2.584 0 4.679 2.1 4.679 4.688a4.683 4.683 0 0 1-4.679 4.688h-.034a4.683 4.683 0 0 1-4.679-4.688 4.684 4.684 0 0 1 4.679-4.688Z" fill="#E3E3E3" opacity=".32"/><defs><linearGradient id="a" x1="-73.248" y1="248.801" x2="-73.331" y2="248.315" gradientUnits="userSpaceOnUse"><stop stop-color="#CFCFCF"/><stop offset="1" stop-color="#858585"/></linearGradient><linearGradient id="b" x1="-73.597" y1="249.478" x2="-73.533" y2="248.98" gradientUnits="userSpaceOnUse"><stop stop-color="#CECECE"/><stop offset="1" stop-color="#888"/></linearGradient><linearGradient id="c" x1="64.603" y1="251.782" x2="64.519" y2="251.296" gradientUnits="userSpaceOnUse"><stop stop-color="#CFCFCF"/><stop offset="1" stop-color="#858585"/></linearGradient><linearGradient id="d" x1="64.254" y1="252.458" x2="64.318" y2="251.961" gradientUnits="userSpaceOnUse"><stop stop-color="#CECECE"/><stop offset="1" stop-color="#888"/></linearGradient><linearGradient id="e" x1="34.074" y1="321.904" x2="33.975" y2="321.331" gradientUnits="userSpaceOnUse"><stop stop-color="#CFCFCF"/><stop offset="1" stop-color="#858585"/></linearGradient><linearGradient id="f" x1="33.662" y1="322.703" x2="33.737" y2="322.116" gradientUnits="userSpaceOnUse"><stop stop-color="#CECECE"/><stop offset="1" stop-color="#888"/></linearGradient><linearGradient id="g" x1="-77.582" y1="251.072" x2="-77.582" y2="251.597" gradientUnits="userSpaceOnUse"><stop stop-color="#F2F4F9" stop-opacity="0"/><stop offset="1" stop-color="#E7EEFF"/></linearGradient><linearGradient id="h" x1="82.692" y1="57.992" x2="82.277" y2="91.13" gradientUnits="userSpaceOnUse"><stop stop-color="#676767"/><stop offset="1" stop-color="#2F2F2F" stop-opacity="0"/></linearGradient><linearGradient id="i" x1="-76.126" y1="253.669" x2="-76.126" y2="254.219" gradientUnits="userSpaceOnUse"><stop offset=".003" stop-color="#F2F4F9" stop-opacity="0"/><stop offset=".98" stop-color="#EAF0FF"/></linearGradient><linearGradient id="j" x1="90.962" y1="14.084" x2="90.962" y2="77.875" gradientUnits="userSpaceOnUse"><stop stop-color="#575757"/><stop offset="1" stop-color="#474747"/></linearGradient><linearGradient id="k" x1="90.962" y1="15.74" x2="90.962" y2="79.531" gradientUnits="userSpaceOnUse"><stop stop-color="#9E9E9E"/><stop offset="1" stop-color="#474747"/></linearGradient><linearGradient id="l" x1="-77.118" y1="248.033" x2="-76.355" y2="248.029" gradientUnits="userSpaceOnUse"><stop stop-color="#595959"/><stop offset="1" stop-color="#565656"/></linearGradient><pattern id="m" patternContentUnits="objectBoundingBox" width="1" height="1"><use xlink:href="#n" transform="scale(.00862 .07692)"/></pattern><image id="n" width="116" height="13" xlink:href="data:image/png;base64,iVBORw0KGgoAAAANSUhEUgAAAHQAAAANCAYAAAB4t0ouAAAAAXNSR0IArs4c6QAAAWlJREFUWEftWFsOAjEItKf1TJ52Tc3WEALMAI2auP5oLJlOh/LqOI7jcTs/Y4z7+r2+5bpc07as3cRgbTPcOtyrnCI9NCbit0vPocWVwJ7wkyxrl7GNMJEgmX0ytrvOuZN/qJN3kyxHe85HtosAspNCRxdNRgbDydq/yymLqTOflRV2cBoesJfuoqhFDuliWqJYF5JxsoVViUZ0Sa3IjC6k5uVxmv9be78cGtWQanrKYGZqGHPTK7X+U+fM8GfrquT+dqgnKpP7tRjoBnYxWVG86LCyTJcTi8lkmWVT4RQ6NEoX3RrHOAWlK43xTU7s3qxDq9pfEXoqXImGSiZiHeplPZQJrhoqFGabokpt8xyZ6R+YMfKvu1zdKbIOldHzk12uNU4gopVDdTEzdRedacfMp6MrwqxyXzozo9jc/3opCp4iM6MMsmVqNJshwpeizHtpZb5jDuK16ahz3MW9O7IxDQyqu2idHWWeWr6yhM2ltuMAAAAASUVORK5CYII="/></defs></svg>
